X:1
T:Aus Tiefer Not (a 4v)
T:Benedictus Ducis
T:Source : DDT 34---Leipzig---Breitkopf & Härtel---J.Wolf---1908. First publication : Neue Deudsche Geistliche Gesenge---Wittemberg---G.Rhau---1544. Editor : André Vierendeels (16/07/17).
T:Notes : Original clefs : C1, C3, C4, F4 Original note values have been halved Editorial accidentals above the staff  
T:Aus Tiefer Not (a 4v)
T:©
T:©
T:©
C:Benedictus Ducis
Z:©
%%score [ 1 [ 2 3 ] 4 ]
L:1/8
Q:1/4=120
M:2/2
K:F
V:1 treble nm="Alto" snm="A"
V:2 treble-8 nm="Tenor 1" snm="T 1"
V:3 treble-8 nm="Tenor 2" snm="T 2"
V:4 bass nm="Bass" snm="B"
V:1
 F8 | E4 F4 | G4 E4- | E4 F4 | G4 A4- | A4 z4 | z8 | z8 | z4 z2 G2 | F2 E3 DEC | D3 E F2 E2- | %11
w: Aus|tie- fer|Not schrei|_ ich|zu dir,|_|||Herr|Gott, er- * * *|hör _ _ mein|
w: Dein|gnä- dig|Oh- ren|_ kehr|zu mir|_|||und|mei- ner _ _ _|Bitt, _ _ sie|
 E2 C2 D2 E2 | C2 F4 E2 |1 F8 :|2 F8 || z2 F2 G2 B2 | A4 F2 G2 | E4 D4- | D4 z4 | z8 | %20
w: _ _ _ _|Ru- * *|fen.||Denn so du|wilt das se-|hen an,|_||
w: _ _ _ _||öf-|fen,||||||
 z2 F2 E2 D2 | C2 E2 D2 F2 | EC F4 E2 | F2 A2 A4- | A2 G2 F4 | F2 GF ED E2 | C2 F4 E2 | F8 |] %28
w: was Sünd und|Un- recht ist _|_ _ _ ge-|tan, wer kann,|_ _ Herr,|für dir _ _ _ _|blei- * *|ben?|
w: ||||||||
V:2
 F8 | c4 d4 | B2 c3 B A2 | G2 G2 F2 f2- | f2 e2 d2 c2- | c2 A2 G4 | F4 z4 | z8 | z8 | %9
w: Aus|tie- fer|Not schrei _ _|ich zu dir, Herr|_ Gott, er- hör|_ mein Ru-|fen.|||
w: Dein|gnä- dig|Oh- ren _ _|kehr zu mir und|_ mei- ner Bitt|_ sie of-|fen,|||
 z2 c2 G2 c2- | c2 B2 c4- | c4 B2 G2 | A2 c3 B c2 |1 A8 :|2 A4 z2 A2 || B6 B2 | c2 d4 B2 | c4 B4- | %18
w: Herr Gott, er-|* * hör|_ mein _|Ru- * * *|fen.|* Denn|so du|wilt das se-|hen an,|
w: und mei- ner|_ _ Bitt|_ sie _|öf- * * *||fen, *||||
 B4 z4 | z4 G3 A | Bc d2 c2 B2 | G3 A B2 A2 | c2 d2 c4 | A2 f2 f3 e | dc e2 d4- | d2 d2 c3 B | %26
w: _|was _|_ _ _ Sünd und|Un- * * recht|ist _ ge-|tan, wer kann, _|_ _ _ Herr,|_ für dir _|
w: ||||||||
 G2 c3 B c2 | A8 |] %28
w: _ blei- * *|ben?|
w: ||
V:3
 z8 | z8 | z8 | z8 | z4 F4- | F4 E4 | F4 G4 | E8 | F4 G4 | A4 z4 | z2 B2 A4 | G2 F4 E2 | %12
w: ||||Aus|_ tie-|fer Not|schrei|ich zu|dir,|Herr Gott,|er- hör mein|
w: ||||Dein|_ gnä-|dig Oh-|ren|kehr zu|mir|und mei-|ner Bitt sie|
 F2 A2 G4 |1 F8 :|2 F8 || z8 | z8 | z4 F4 | G2 B2 A4 | F2 G2 E4 | D4 z2 F2 | F2 E2 F3 G | %22
w: Ru- * *|fen,||||Denn|so du wilt|das se- hen|an, was|Sünd und Un- recht|
w: _ _ öf-||fen,||||||||
 A2 B2 G4 | F8 | z2 c2 A4 | B4 G3 F | E2 A2 G4 | F8 |] %28
w: ist _ ge-|tan,|wer kann,|Herr, für _|_ dir blei-|ben?|
w: ||||||
V:4
 z8 | z8 | z8 | z8 | z4 F,,4- | F,,4 C,4 | D,4 B,,2 C,2- | C,B,, A,,2 G,,2 G,,2 | F,,2 F,4 E,2 | %9
w: ||||Aus|_ tie-|fer Not schrei-|* * * ich zu|dir, Herr _|
w: ||||Dein|_ gnä-|dig Oh- *|* * ren kehr zu|mir und mei-|
 D,2 C,3 B,, A,,2 | G,,4 F,,G,,A,,B,, | C,2 A,,2 B,,2 C,2 | F,,4 C,4 |1 F,,8 :|2 F,,8 || z8 | z8 | %17
w: Gott, er- * *|hör mein _ _ _|_ _ _ _|Ru- *|fen||||
w: ner Bitt _ _|_ sie _ _ _|_ _ _ _|öf- *||fen,|||
 z2 A,,2 B,,4- | B,,2 B,,2 C,2 D,2- | D,2 B,,2 C,4 | B,,4 z2 B,,2 | C,4 B,,2 D,2 | C,2 B,,2 C,4 | %23
w: Denn so|_ du wilt das|_ se- hen|an, was|Sünd und Un-|recht ist ge-|
w: ||||||
 D,4 z2 D,2 | F,2 C,2 D,4 | B,,4 C,4- | C,8 | F,,8 |] %28
w: tan, wer|kann, Herr, für|dir blei-||ben?|
w: |||||

